X:3
T:The Austrian
S:Ashworth's Instructor, p. 29
M:C
L:1/8
K:G
%%MIDI program 72
%%MIDI transpose 8
D2|G>AB>c d>ef>d|g2 g2 f3 d|e2 e2 d3 B|c>ec>A B>dB>G|A>cA>F G2::
B2|d>BG>B A>FD>B|d>BG>B A3 B|d>BG>B A>FD>B|d>BG>B A3 D|G>AB>c d>ef>d|
g2 g2 f3 d|e2 e2 d3 B|c>ec>A B>dB>G|A>cA>F G2:|]

